TV/Source/Relax.svg

<svg height="24.750002pt" viewBox="0 0 100.95568 24.750002" width="100.95568pt" xmlns="http://www.w3.org/2000/svg" xmlns:xlink="http://www.w3.org/1999/xlink"><clipPath id="a"><path d="m0 6.5599514h27.999793v-6.5599514h-27.999793z"/></clipPath><clipPath id="b"><path d="m0 6.5599514h27.999793v-6.5599514h-27.999793z"/></clipPath><clipPath id="c"><path d="m0 6.5599514h27.999793v-6.5599514h-27.999793z"/></clipPath><clipPath id="d"><path d="m0 6.5599514h27.999793v-6.5599514h-27.999793z"/></clipPath><clipPath id="e"><path d="m0 6.5599514h27.999793v-6.5599514h-27.999793z"/></clipPath><clipPath id="f"><path d="m0 6.5599514h27.999793v-6.5599514h-27.999793z"/></clipPath><clipPath id="g"><path d="m0 6.5599514h27.999793v-6.5599514h-27.999793z"/></clipPath><clipPath id="h"><path d="m0 6.5599514h27.999793v-6.5599514h-27.999793z"/></clipPath><g fill="#c9e400"><path clip-path="url(#a)" d="m13.279902 5.4399597-.08-.079999v-5.27996129l-.079999-.07999941h-1.119992l-.159999.07999941v6.39995259l.159999.079999h4.159969l.08-.079999v-.9599929l-.08-.079999z" transform="matrix(3.6021992 0 0 3.6021992 -1.160081 .637733)"/><path clip-path="url(#b)" d="m20.079851 3.9999704h-1.519988l-.159999-.0799994.879993-2.2399834h.08l.879993 2.2399834zm-.159999-3.9999704h-1.199991l-.08.07999941-2.159984 5.43995969v.9599929l.08.079999h.799994l.159999-.079999.399997-1.2799905.239998-.079999h2.319983l.159999.079999.479997 1.2799905.08.079999h.879993l.08-.079999v-.9599929l-2.159985-5.43995969z" transform="matrix(3.6032282 0 0 3.6032282 -.903183 .638346)"/><path clip-path="url(#d)" d="m3.1999763 2.7999793h-1.759987l-.1599988-.0799994v-1.5199888l.1599988-.079999h1.759987c.5599958 0 .8799935.1599988.8799935.8799935 0 .6399952-.3199977.7999941-.8799935.7999937zm2.2399834-.7999941c0-1.35998994-.9599929-1.9999852-2.2399834-1.9999852h-3.11997689l-.07999941.07999941v6.39995259l.07999941.079999h1.11999169l.0799994-.079999v-2.4799816l.1599988-.0799994h.8799935l.2399982.0799994 1.8399864 2.4799816.1599988.0799994h.5599959l.0799994-.0799994v-.9599929l-1.1999911-1.5999881v-.0799994c.799994-.1599989 1.4399893-.8799935 1.4399893-1.8399864" transform="matrix(3.6026563 0 0 3.6026563 0 .639906)"/><path clip-path="url(#f)" d="m8.8799342 3.2799757c0-.4799964-.399997-.8799935-.9599929-.8799935-.4799964 0-.8799934.3999971-.8799934.8799935s.399997.8799935.8799934.8799935c.5599959 0 .9599929-.3999971.9599929-.8799935z" transform="matrix(3.701874 0 0 3.701874 61.450663 .232944)"/><path clip-path="url(#c)" d="m8.8799342 3.2799757c0-.4799964-.399997-.8799935-.9599929-.8799935-.4799964 0-.8799934.3999971-.8799934.8799935s.399997.8799935.8799934.8799935c.5599959 0 .9599929-.3999971.9599929-.8799935z" transform="matrix(3.701874 0 0 3.701874 54.818038 9.35032)"/><path clip-path="url(#e)" d="m8.8799342 3.2799757c0-.4799964-.399997-.8799935-.9599929-.8799935-.4799964 0-.8799934.3999971-.8799934.8799935s.399997.8799935.8799934.8799935c.5599959 0 .9599929-.3999971.9599929-.8799935z" transform="matrix(3.701874 0 0 3.701874 68.083288 9.35032)"/><path clip-path="url(#g)" d="m8.8799342 3.2799757c0-.4799964-.399997-.8799935-.9599929-.8799935-.4799964 0-.8799934.3999971-.8799934.8799935s.399997.8799935.8799934.8799935c.5599959 0 .9599929-.3999971.9599929-.8799935z" transform="matrix(3.701874 0 0 3.701874 54.818038 -8.884432)"/><path clip-path="url(#h)" d="m8.8799342 3.2799757c0-.4799964-.399997-.8799935-.9599929-.8799935-.4799964 0-.8799934.3999971-.8799934.8799935s.399997.8799935.8799934.8799935c.5599959 0 .9599929-.3999971.9599929-.8799935z" transform="matrix(3.701874 0 0 3.701874 68.083288 -8.884432)"/><path d="m22.793269.64275633-.577148.287109v23.05371167l.577148.288574h4.034179 11.655763l.287109-.288574v-3.457031l-.287109-.288575h-11.080079l-.287109-.288574v-5.519532l.282715-.284179h10.394531l.287109-.288574v-3.457032l-.287109-.288574h-10.394531l-.282715-.2841787v-4.863281l.287109-.28711h11.080079l.287109-.288574v-3.45849697l-.287109-.287109h-11.655763z"/></g></svg>

<?xml version="1.0" encoding="UTF-8" standalone="no"?>
<svg
   xmlns:dc="http://purl.org/dc/elements/1.1/"
   xmlns:cc="http://creativecommons.org/ns#"
   xmlns:rdf="http://www.w3.org/1999/02/22-rdf-syntax-ns#"
   xmlns:svg="http://www.w3.org/2000/svg"
   xmlns="http://www.w3.org/2000/svg"
   xmlns:sodipodi="http://sodipodi.sourceforge.net/DTD/sodipodi-0.dtd"
   xmlns:inkscape="http://www.inkscape.org/namespaces/inkscape"
   width="100.95568pt"
   height="24.750002pt"
   viewBox="0 0 100.95568 24.750002"
   version="1.1"
   id="svg22"
   sodipodi:docname="Relax.svg"
   inkscape:version="0.92.0 r15299">
  <metadata
     id="metadata28">
    <rdf:RDF>
      <cc:Work
         rdf:about="">
        <dc:format>image/svg+xml</dc:format>
        <dc:type
           rdf:resource="http://purl.org/dc/dcmitype/StillImage" />
        <dc:title></dc:title>
      </cc:Work>
    </rdf:RDF>
  </metadata>
  <defs
     id="defs26">
    <clipPath
       id="clipEmfPath1"
       clipPathUnits="userSpaceOnUse">
      <path
         id="path4530"
         d="M 0,6.5599514 H 27.999793 V 0 H 0 Z"
         inkscape:connector-curvature="0" />
    </clipPath>
    <pattern
       y="0"
       x="0"
       height="6"
       width="6"
       patternUnits="userSpaceOnUse"
       id="EMFhbasepattern" />
    <clipPath
       id="clipEmfPath1-1"
       clipPathUnits="userSpaceOnUse">
      <path
         inkscape:connector-curvature="0"
         id="path4530-8"
         d="M 0,6.5599514 H 27.999793 V 0 H 0 Z" />
    </clipPath>
    <clipPath
       id="clipEmfPath1-4"
       clipPathUnits="userSpaceOnUse">
      <path
         inkscape:connector-curvature="0"
         id="path4530-7"
         d="M 0,6.5599514 H 27.999793 V 0 H 0 Z" />
    </clipPath>
    <clipPath
       id="clipEmfPath1-6"
       clipPathUnits="userSpaceOnUse">
      <path
         inkscape:connector-curvature="0"
         id="path4530-4"
         d="M 0,6.5599514 H 27.999793 V 0 H 0 Z" />
    </clipPath>
    <clipPath
       id="clipEmfPath1-4-4"
       clipPathUnits="userSpaceOnUse">
      <path
         inkscape:connector-curvature="0"
         id="path4530-7-0"
         d="M 0,6.5599514 H 27.999793 V 0 H 0 Z" />
    </clipPath>
    <clipPath
       id="clipEmfPath1-4-2"
       clipPathUnits="userSpaceOnUse">
      <path
         inkscape:connector-curvature="0"
         id="path4530-7-05"
         d="M 0,6.5599514 H 27.999793 V 0 H 0 Z" />
    </clipPath>
    <clipPath
       id="clipEmfPath1-4-5"
       clipPathUnits="userSpaceOnUse">
      <path
         inkscape:connector-curvature="0"
         id="path4530-7-2"
         d="M 0,6.5599514 H 27.999793 V 0 H 0 Z" />
    </clipPath>
    <clipPath
       id="clipEmfPath1-4-9"
       clipPathUnits="userSpaceOnUse">
      <path
         inkscape:connector-curvature="0"
         id="path4530-7-8"
         d="M 0,6.5599514 H 27.999793 V 0 H 0 Z" />
    </clipPath>
    <clipPath
       id="clipEmfPath1-9"
       clipPathUnits="userSpaceOnUse">
      <path
         inkscape:connector-curvature="0"
         id="path4530-0"
         d="M 0,6.5599514 H 27.999793 V 0 H 0 Z" />
    </clipPath>
    <clipPath
       id="clipEmfPath1-9-6"
       clipPathUnits="userSpaceOnUse">
      <path
         inkscape:connector-curvature="0"
         id="path4530-0-3"
         d="M 0,6.5599514 H 27.999793 V 0 H 0 Z" />
    </clipPath>
    <clipPath
       id="clipEmfPath1-9-9"
       clipPathUnits="userSpaceOnUse">
      <path
         inkscape:connector-curvature="0"
         id="path4530-0-0"
         d="M 0,6.5599514 H 27.999793 V 0 H 0 Z" />
    </clipPath>
    <clipPath
       id="clipEmfPath1-9-6-1"
       clipPathUnits="userSpaceOnUse">
      <path
         inkscape:connector-curvature="0"
         id="path4530-0-3-3"
         d="M 0,6.5599514 H 27.999793 V 0 H 0 Z" />
    </clipPath>
    <clipPath
       id="clipEmfPath1-9-9-8"
       clipPathUnits="userSpaceOnUse">
      <path
         inkscape:connector-curvature="0"
         id="path4530-0-0-9"
         d="M 0,6.5599514 H 27.999793 V 0 H 0 Z" />
    </clipPath>
    <clipPath
       id="clipEmfPath1-9-8"
       clipPathUnits="userSpaceOnUse">
      <path
         inkscape:connector-curvature="0"
         id="path4530-0-1"
         d="M 0,6.5599514 H 27.999793 V 0 H 0 Z" />
    </clipPath>
    <clipPath
       id="clipEmfPath1-9-6-3"
       clipPathUnits="userSpaceOnUse">
      <path
         inkscape:connector-curvature="0"
         id="path4530-0-3-2"
         d="M 0,6.5599514 H 27.999793 V 0 H 0 Z" />
    </clipPath>
    <clipPath
       id="clipEmfPath1-9-9-85"
       clipPathUnits="userSpaceOnUse">
      <path
         inkscape:connector-curvature="0"
         id="path4530-0-0-4"
         d="M 0,6.5599514 H 27.999793 V 0 H 0 Z" />
    </clipPath>
    <clipPath
       id="clipEmfPath1-9-9-8-9"
       clipPathUnits="userSpaceOnUse">
      <path
         inkscape:connector-curvature="0"
         id="path4530-0-0-9-0"
         d="M 0,6.5599514 H 27.999793 V 0 H 0 Z" />
    </clipPath>
  </defs>
  <sodipodi:namedview
     pagecolor="#ffffff"
     bordercolor="#666666"
     borderopacity="1"
     objecttolerance="10"
     gridtolerance="10"
     guidetolerance="10"
     inkscape:pageopacity="0"
     inkscape:pageshadow="2"
     inkscape:window-width="1920"
     inkscape:window-height="1017"
     id="namedview24"
     showgrid="false"
     fit-margin-top="0"
     fit-margin-left="0"
     fit-margin-right="0"
     fit-margin-bottom="0"
     inkscape:zoom="5.6568543"
     inkscape:cx="71.722082"
     inkscape:cy="21.694034"
     inkscape:window-x="-8"
     inkscape:window-y="-8"
     inkscape:window-maximized="1"
     inkscape:current-layer="svg22"
     showguides="false" />
  <g
     id="#ffffffff"
     transform="translate(-30.258101,-280.85734)" />
  <path
     id="path4536"
     d="m 13.279902,5.4399597 -0.08,-0.079999 V 0.07999941 L 13.119903,0 H 11.999911 L 11.839912,0.07999941 V 6.479952 l 0.159999,0.079999 h 4.159969 l 0.08,-0.079999 V 5.5199591 l -0.08,-0.079999 z"
     clip-path="url(#clipEmfPath1)"
     style="fill:#c9e400;fill-opacity:1;fill-rule:nonzero;stroke:none"
     inkscape:connector-curvature="0"
     transform="matrix(3.6021992,0,0,3.6021992,-1.1600809,0.6377327)"
     sodipodi:nodetypes="ccccccccccccc" />
  <path
     id="path4536-8"
     d="M 20.079851,3.9999704 H 18.559863 L 18.399864,3.919971 19.279857,1.6799876 h 0.08 L 20.23985,3.919971 Z M 19.919852,0 h -1.199991 l -0.08,0.07999941 -2.159984,5.43995969 V 6.479952 l 0.08,0.079999 h 0.799994 l 0.159999,-0.079999 0.399997,-1.2799905 0.239998,-0.079999 h 2.319983 l 0.159999,0.079999 0.479997,1.2799905 0.08,0.079999 h 0.879993 l 0.08,-0.079999 V 5.5199591 L 19.999852,0.07999941 Z"
     clip-path="url(#clipEmfPath1-1)"
     style="fill:#c9e400;fill-opacity:1;fill-rule:nonzero;stroke:none"
     inkscape:connector-curvature="0"
     sodipodi:nodetypes="cccccccccccccccccccccccccc"
     transform="matrix(3.6032282,0,0,3.6032282,-0.90318278,0.63834638)" />
  <path
     id="path4536-7"
     d="M 3.1999763,2.7999793 H 1.4399893 L 1.2799905,2.7199799 V 1.1999911 l 0.1599988,-0.079999 h 1.759987 c 0.5599958,0 0.8799935,0.1599988 0.8799935,0.8799935 0,0.6399952 -0.3199977,0.7999941 -0.8799935,0.7999937 z M 5.4399597,1.9999852 C 5.4399597,0.63999526 4.4799668,0 3.1999763,0 H 0.07999941 L 0,0.07999941 V 6.479952 L 0.07999941,6.559951 H 1.1999911 L 1.2799905,6.479952 V 3.9999704 L 1.4399893,3.919971 H 2.3199828 L 2.559981,3.9999704 4.3999674,6.479952 4.5599662,6.5599514 H 5.1199621 L 5.1999615,6.479952 V 5.5199591 L 3.9999704,3.919971 V 3.8399716 C 4.7999644,3.6799727 5.4399597,2.9599781 5.4399597,1.9999852"
     clip-path="url(#clipEmfPath1-6)"
     style="fill:#c9e400;fill-opacity:1;fill-rule:nonzero;stroke:none"
     inkscape:connector-curvature="0"
     sodipodi:nodetypes="sccccssscscccccccccccccccccc"
     transform="matrix(3.6026563,0,0,3.6026563,0,0.63990575)" />
  <g
     id="g4652"
     transform="translate(0.0095365)">
    <path
       transform="matrix(3.701874,0,0,3.701874,61.441126,0.23294435)"
       sodipodi:nodetypes="sssss"
       inkscape:connector-curvature="0"
       style="fill:#c9e400;fill-opacity:1;fill-rule:nonzero;stroke:none"
       clip-path="url(#clipEmfPath1-4-2)"
       d="m 8.8799342,3.2799757 c 0,-0.4799964 -0.399997,-0.8799935 -0.9599929,-0.8799935 -0.4799964,0 -0.8799934,0.3999971 -0.8799934,0.8799935 0,0.4799964 0.399997,0.8799935 0.8799934,0.8799935 0.5599959,0 0.9599929,-0.3999971 0.9599929,-0.8799935 z"
       id="path4536-6-8" />
    <g
       id="g4644">
      <path
         id="path4536-6"
         d="m 8.8799342,3.2799757 c 0,-0.4799964 -0.399997,-0.8799935 -0.9599929,-0.8799935 -0.4799964,0 -0.8799934,0.3999971 -0.8799934,0.8799935 0,0.4799964 0.399997,0.8799935 0.8799934,0.8799935 0.5599959,0 0.9599929,-0.3999971 0.9599929,-0.8799935 z"
         clip-path="url(#clipEmfPath1-4)"
         style="fill:#c9e400;fill-opacity:1;fill-rule:nonzero;stroke:none"
         inkscape:connector-curvature="0"
         sodipodi:nodetypes="sssss"
         transform="matrix(3.701874,0,0,3.701874,54.808501,9.3503204)" />
      <path
         id="path4536-6-5"
         d="m 8.8799342,3.2799757 c 0,-0.4799964 -0.399997,-0.8799935 -0.9599929,-0.8799935 -0.4799964,0 -0.8799934,0.3999971 -0.8799934,0.8799935 0,0.4799964 0.399997,0.8799935 0.8799934,0.8799935 0.5599959,0 0.9599929,-0.3999971 0.9599929,-0.8799935 z"
         clip-path="url(#clipEmfPath1-4-4)"
         style="fill:#c9e400;fill-opacity:1;fill-rule:nonzero;stroke:none"
         inkscape:connector-curvature="0"
         sodipodi:nodetypes="sssss"
         transform="matrix(3.701874,0,0,3.701874,68.073751,9.3503204)" />
      <path
         id="path4536-6-2"
         d="m 8.8799342,3.2799757 c 0,-0.4799964 -0.399997,-0.8799935 -0.9599929,-0.8799935 -0.4799964,0 -0.8799934,0.3999971 -0.8799934,0.8799935 0,0.4799964 0.399997,0.8799935 0.8799934,0.8799935 0.5599959,0 0.9599929,-0.3999971 0.9599929,-0.8799935 z"
         clip-path="url(#clipEmfPath1-4-5)"
         style="fill:#c9e400;fill-opacity:1;fill-rule:nonzero;stroke:none"
         inkscape:connector-curvature="0"
         sodipodi:nodetypes="sssss"
         transform="matrix(3.701874,0,0,3.701874,54.808501,-8.8844317)" />
      <path
         id="path4536-6-9"
         d="m 8.8799342,3.2799757 c 0,-0.4799964 -0.399997,-0.8799935 -0.9599929,-0.8799935 -0.4799964,0 -0.8799934,0.3999971 -0.8799934,0.8799935 0,0.4799964 0.399997,0.8799935 0.8799934,0.8799935 0.5599959,0 0.9599929,-0.3999971 0.9599929,-0.8799935 z"
         clip-path="url(#clipEmfPath1-4-9)"
         style="fill:#c9e400;fill-opacity:1;fill-rule:nonzero;stroke:none"
         inkscape:connector-curvature="0"
         sodipodi:nodetypes="sssss"
         transform="matrix(3.701874,0,0,3.701874,68.073751,-8.8844317)" />
    </g>
  </g>
  <path
     style="fill:#c9e400;fill-opacity:1;fill-rule:nonzero;stroke:none;stroke-width:3.60219932"
     d="m 22.793269,0.64275633 -0.577148,0.287109 V 23.983577 l 0.577148,0.288574 h 4.034179 11.655763 L 38.77032,23.983577 V 20.526546 L 38.483211,20.237971 H 27.403132 l -0.287109,-0.288574 v -5.519532 l 0.282715,-0.284179 h 10.394531 l 0.287109,-0.288574 V 10.40008 L 37.793269,10.111506 H 27.398738 L 27.116023,9.8273273 v -4.863281 l 0.287109,-0.28711 H 38.483211 L 38.77032,4.3883623 V 0.92986533 l -0.287109,-0.287109 H 26.827448 Z"
     id="path4536-81-26"
     inkscape:connector-curvature="0" />
</svg>
